X:1
T:Title
%%score { ( 1 4 ) | ( 2 3 ) }
L:1/8
M:3/4
K:Eb
V:1 treble nm="Grand Piano"
V:4 treble 
V:2 bass 
V:3 bass 
V:1
 z2 z2[Q:1/4=100] GA | B2 B2 B2 | c2 B2 z F | G2 G2 A2 | G4 BB | [DB]2 [DF]2 [DB]2 | %6
 [Fd]2 [DB]2 [Fd]2 | c2 B2 =A2 | [DB]4 BB | d2 c2 d2 | e2 [GB]2 [GB]2 | c2 B2 A2 | %12
 G4 [B,DG][A,DF] | [G,CE]2 [G,CE]2 [G,CE]2 | [A,DF]2 [G,CE]2 [B,DF]2 | [B,EG]2 [B,GB]2 [B,EG]2 | %16
[M:2/4] [B,DF]4 |[M:1/4] [DB]2 |[M:3/4] [EB]2 [EG]2 [GB]2 | [Ge]4 [EGB]2 | [EAc]2 [CEA]2 [EAc]2 | %21
 [EGB]4 [B,EG][A,DF] | [G,CE]2 [G,CE]2 [G,CE]2 | [CF]2 [C=EG]2 [CFA]2 | .[B,EG]2 .[B,EG]2 [A,DF]2 | %25
[M:2/4][K:bass] [E,G,B,E]4 |] %26
V:2
 z2 z2 EF | [E,G,E]2 [E,G,E]2 [E,G,E]2 | [E,A,E]2 [E,G,E]2 E,-[E,A,] | [E,B,E]2 [E,B,E]2 [E,CE]2 | %4
 [E,B,E]4 [E,G,E][E,G,E] | [B,,F,]2 [B,,B,]2 [B,,F,]2 | [B,,B,]2 [B,,F,]2 [B,,B,]2 | %7
 [E,G,E]2 [F,D]2 [F,C]2 | [B,,F,]4[K:treble] [B,D][B,D] | [A,B,F]2 [A,B,F]2 [A,B,F]2 | %10
 [G,B,E]2 [E,E]2 [E,E]2 | [A,EA]2 [G,B,E]2[K:bass] [F,B,D]2 | [E,B,E]4 B,,B,, | C,2 C,2 C,2 | %14
 B,,2 B,,2 B,,2 | E,2 E,2 E,2 |[M:2/4] B,,4 |[M:1/4] [B,,A,]2 |[M:3/4] [E,G,]2 [E,B,]2 [E,E]2 | %19
 [E,B,]4 E,2 | A,2 A,2 A,2 | E,4 E,B,, | C,2 C,2 C,2 | A,,2 G,,2 F,,2 | .B,,2 .B,,2 B,,2 | %25
[M:2/4] E,,4 |] %26
V:3
 z2 z2 [E,B,]2 | x6 | z2 z2 .G,2 | x6 | x6 | x6 | x6 | x6 | x4[K:treble] x2 | x6 | x6 | %11
 x4[K:bass] x2 | x6 | x6 | x6 | x6 |[M:2/4] x4 |[M:1/4] x2 |[M:3/4] x6 | x6 | x6 | x6 | x6 | x6 | %24
 x6 |[M:2/4] x4 |] %26
V:4
 x6 | x6 | z2 z2 E2 | x6 | x6 | x6 | x6 | x6 | x6 | x6 | x6 | x6 | x6 | x6 | x6 | x6 |[M:2/4] x4 | %17
[M:1/4] x2 |[M:3/4] x6 | x6 | x6 | x6 | x6 | x6 | x6 |[M:2/4][K:bass] x4 |] %26

